X:1
T:Se quando
T:Se quando
T:Giovanni Maria Artusi
T:Source : Canzonette a 4 voci---Libro primo---Venetia---G.Vincenti---1598. Editor: André Vierendeels (18/02/14).
T:Notes : Original clefs : G2, G2, C2, C3 Editorial accidentals above the staff
C:Giovanni Maria Artusi
%%score [ 1 2 3 4 ]
L:1/8
Q:1/4=76
M:4/4
K:F
V:1 treble nm="Canto 1" snm="C1"
V:2 treble nm="Canto 2" snm="C2"
V:3 treble nm="Alto" snm="A"
V:4 treble-8 nm="Tenor" snm="T"
V:1
 z4 d4 | d2 d2 d4- | d2 c2 c3 B | AG AB A2 A2 | z2 c2 B2 c2 | c2 B2 A4 | =B8 |"^b" B4 B2 B2 | %8
w: Se|quan- do parl'|_ o ri- *|* * * * * de,|A- mor co-|stei m'an- ci-|de,|se quan- do|
 B6 A2 | AG AB A2 Bc | d4 d2 d2 | _e3 e e2 e2 | d8 | d8 | c2 BA B4- | B2 B2 G4 | A4 z4 | %17
w: parl' o|ri- * * * * * *|* de, A-|mor co- stei m'an-|ci-|de,|che di me fia|_ s'a for-|te,|
 z2 f2 f3 e | d2 cB A2 G2 | ^F3 G A2 B2 | A8 | =B8 | z8 | z2 d2 c4 | c2 c2 B3 c | d4 c4 | d8- | %27
w: un di mi|sfid'- * * * a|mor- * * *||te,||s'a for-|te, un di mi|sfid' a|mor-|
 d8- | d8 | d8 |] %30
w: ||te.|
V:2
 B4 B2 B2 | B6 A2 | AG AB A2 Bc | d4 d2 d2 | _e3 e e2 e2 | d8 | d8 | z4 d4 | d2 d2 d4- | %9
w: mor co- stei|m'an- ci-|de, * * * * * *|* se quan-|do parl' o ri-|de,|A-|mor|co- stei m'an-|
 d2 c2 c3 B | AG AB A2 A2 | z2 c2 B2 c2 | c2 B2 A4 | =B8 | z8 | z2 d2 c4 | c2 c2 B3 c | d4 c4 | %18
w: _ ci- de, *|* * * * * s'a|for- te, un|di mi sfid'|a||mor- te,|che di me fia|s'a for-|
 d8- | d8- | d8 | d8 | c2 BA B4- | B2 B2 G4 | A4 z4 | z2 f2 f3 e | d2 cB A2 G2 | ^F3 G A2 B2 | A8 | %29
w: te,|||un|di mi sfid' a|_ mor- te.|Se|quan- do parl'|o _ _ _ ri-|de, * * *||
 =B8 |] %30
w: A-|
V:3
 G4 G2 G2 | G6 D2 | FE FG F2 G2 | D4 D2 ^F2 | G3 G G4 | ^F2 G4 F2 | G8 | G4 G2 G2 | G6 D2 | %9
w: mor co- stei|m'an- ci-|de,, * * * * *|* se quan-|do parl' o|ri- de, *|A-|mor co- stei|m'an- ci-|
 FE FG F2 G2 | D4 D2 ^F2 | G3 G G4 | ^F2 G4 F2 | G8 |"^b" G6 FE |"^-natural" F2 G2 E4 | F4 z2 G2 | %17
w: de, * * * * *|* che di|mi fia s'a|for- te, *|un|di mi sfid'|a mor- te,|che di|
 F3 G A2 G2 | B2 AG ^F2 G2 | A6 G2- | G2 FE ^F4 | G8 |"^b" G6 FE |"^-natural" F2 G2 E4 | F4 z2 G2 | %25
w: mi fia s'a for-|te, * * * *|||un|di mi sfid'|a mor- te.|A- mor|
 F3 G A2 G2 | B2 AG ^F2 G2 | A6 G2- | G2 FE ^F4 | G8 |] %30
w: co- stei m'an- ci-|de, * * * *|||A-|
V:4
 z8 | z8 | z8 | z4 z2 d2 | c3 d _e2 c2 | d8 | G8 | z8 | z8 | z8 | z4 z2 d2 | c3 d _e2 c2 | d8 | %13
w: |||mor|co- stei m'an- ci-|de,|che||||di|mi fia s'a for-|te,|
 G8 | _e6 dc | B2 G2 c4 | F4 z4 | z4 z2 c2 | B3 c d2 G2 | d3 e ^f2 g2 | d8 | G8 | _e6 dc | %23
w: un|di mi sfid'|a mor- te,|che|di|mi fia s'a for-|te, * * *||un|di mi sfid'|
 B2 G2 c4 | F4 z4 | z4 z2 c2 | B3 c d2 G2 | d3 e ^f2 g2 | d8 | G8 |] %30
w: a mor- te.|||||||

